usr/share/arcologout/themes/red/logout.svg

<?xml version="1.0" encoding="UTF-8" standalone="no"?>
<svg
   xmlns:dc="http://purl.org/dc/elements/1.1/"
   xmlns:cc="http://creativecommons.org/ns#"
   xmlns:rdf="http://www.w3.org/1999/02/22-rdf-syntax-ns#"
   xmlns:svg="http://www.w3.org/2000/svg"
   xmlns="http://www.w3.org/2000/svg"
   xmlns:sodipodi="http://sodipodi.sourceforge.net/DTD/sodipodi-0.dtd"
   xmlns:inkscape="http://www.inkscape.org/namespaces/inkscape"
   width="24px"
   height="24px"
   viewBox="0 0 24 24"
   version="1.1"
   id="svg11"
   sodipodi:docname="logout.svg"
   inkscape:version="0.92.4 5da689c313, 2019-01-14">
  <metadata
     id="metadata15">
    <rdf:RDF>
      <cc:Work
         rdf:about="">
        <dc:format>image/svg+xml</dc:format>
        <dc:type
           rdf:resource="http://purl.org/dc/dcmitype/StillImage" />
        <dc:title>pane-hide</dc:title>
      </cc:Work>
    </rdf:RDF>
  </metadata>
  <sodipodi:namedview
     pagecolor="#ffffff"
     bordercolor="#666666"
     borderopacity="1"
     objecttolerance="10"
     gridtolerance="10"
     guidetolerance="10"
     inkscape:pageopacity="0"
     inkscape:pageshadow="2"
     inkscape:window-width="1920"
     inkscape:window-height="1080"
     id="namedview13"
     showgrid="false"
     inkscape:pagecheckerboard="true"
     inkscape:zoom="9.8333333"
     inkscape:cx="-7.8305085"
     inkscape:cy="12"
     inkscape:window-x="0"
     inkscape:window-y="0"
     inkscape:window-maximized="0"
     inkscape:current-layer="svg11" />
  <!-- Generator: Sketch 51.3 (57544) - http://www.bohemiancoding.com/sketch -->
  <title
     id="title2">pane-hide</title>
  <desc
     id="desc4">Created with Sketch.</desc>
  <defs
     id="defs6" />
  <g
     id="pane-hide"
     stroke="none"
     stroke-width="1"
     fill="none"
     fill-rule="evenodd"
     style="fill:#ffffff">
    <g
       id="259"
       transform="translate(6.000000, 5.000000)"
       fill="#DDDDDD"
       fill-rule="nonzero"
       style="fill:#ffffff">
      <path
         d="M1,0 L1,1.0019531 L10,1.0039062 L10,13.003906 L1,13.003906 L1,14 L11,14.003906 L11,0.0039062 L1,0 Z M4,4.0039062 L4,6.0039062 L0,6.0039062 L0,7.0039062 L4,7.0039062 L4,9.003906 L8,6.5039061 L4,4.0039062 Z"
         id="Shape"
         style="fill:#ffffff" />
    </g>
  </g>
</svg>

<?xml version="1.0" encoding="UTF-8"?>
<svg width="24px" height="24px" version="1.1" viewBox="0 0 24 24" xmlns="http://www.w3.org/2000/svg" xmlns:cc="http://creativecommons.org/ns#" xmlns:dc="http://purl.org/dc/elements/1.1/" xmlns:rdf="http://www.w3.org/1999/02/22-rdf-syntax-ns#">
 <metadata>
  <rdf:RDF>
   <cc:Work rdf:about="">
    <dc:format>image/svg+xml</dc:format>
    <dc:type rdf:resource="http://purl.org/dc/dcmitype/StillImage"/>
    <dc:title>pane-hide</dc:title>
   </cc:Work>
  </rdf:RDF>
 </metadata>
 <!-- Generator: Sketch 51.3 (57544) - http://www.bohemiancoding.com/sketch -->
 <title>pane-hide</title>
 <desc>Created with Sketch.</desc>
 <g id="pane-hide" fill="#b00000" fill-rule="evenodd">
  <g transform="translate(6 5)" fill="#b00000" fill-rule="nonzero">
   <path id="Shape" d="m1 0v1.002l9 0.0019531v12h-9v0.99609l10 0.003906v-14l-10-0.0039062zm3 4.0039v2h-4v1h4v2l4-2.5-4-2.5z" fill="#b00000"/>
  </g>
 </g>
</svg>
